newicons/install_with_options.svg

<?xml version="1.0" encoding="UTF-8"?><svg id="a" xmlns="http://www.w3.org/2000/svg" viewBox="0 0 48 48"><defs><style>.c{fill:none;stroke:#fff;stroke-linecap:round;stroke-linejoin:round;}</style></defs><path id="b" class="c" d="M21.584,14.306v9.71h-8.01l10.41,10.387,10.41-10.387h-8.009v-9.71h-4.801ZM21.74,45.4c-4.4035-.4616-8.5574-2.2705-11.895-5.18M6.788,36.932c-2.5661-3.4129-4.0587-7.5121-4.288-11.776M2.728,20.673c.627-4.0072,2.3738-7.7557,5.039-10.813M11.053,6.803c3.1158-2.3434,6.8097-3.7961,10.687-4.203M26.222,2.6c10.9567,1.1459,19.2779,10.3831,19.278,21.4h0c.0002,11.0149-8.3177,20.2512-19.272,21.4"/></svg>

<svg xmlns="http://www.w3.org/2000/svg" xml:space="preserve" id="svg1" version="1.1" viewBox="0 0 48 48"><defs id="defs1"><style id="style1">.a{fill:none;stroke:#fff;stroke-linecap:round;stroke-linejoin:round}</style></defs><path id="rect2" d="M21.584 14.306v9.71h-8.01l10.41 10.387 10.41-10.387h-8.009v-9.71zM21.74 45.4a21.516 21.517 0 0 1-11.895-5.18m-3.057-3.288A21.516 21.517 0 0 1 2.5 25.156m.228-4.483A21.516 21.517 0 0 1 7.767 9.86m3.286-3.057A21.516 21.517 0 0 1 21.74 2.6m4.482 0A21.516 21.517 0 0 1 45.5 24v0a21.516 21.517 0 0 1-19.272 21.4" style="fill:none;fill-opacity:.266292;stroke:#fff;stroke-width:1stroke-linecap:round;stroke-linejoin:round;stroke-opacity:1"/></svg>
